#@AUTEUR: Thomas Labarussias

startshape jj
background{hue 47.5200 sat 0.9804 b 1.0000}

rule mm
{
SQUARE{skew 45 0 b 1 x -0.3}
SQUARE{skew 45 0 x 0.2}
SQUARE{skew 45 0 s 1 1.05 hue 196.5690 sat 1.0000 b 0.9373 }
}

rule ll
{
2*{f 0 y -0.98 x -0.05}mm{}
}

rule jj
{
18*{r 20}ll{y 7}
jj{s 0.71}
}